images/svg/Sketch.svg

<svg width="97" height="87" viewBox="0 0 97 87" fill="none" xmlns="http://www.w3.org/2000/svg">
<g clip-path="url(#clip0_254_512)">
<path fill-rule="evenodd" clip-rule="evenodd" d="M19.993 31.2227L48.3868 86.7977L0.661987 31.2227H19.993Z" fill="#EA6C00"/>
<path fill-rule="evenodd" clip-rule="evenodd" d="M76.7887 31.2227L48.3949 86.7977L96.1198 31.2227H76.7887Z" fill="#EA6C00"/>
<path fill-rule="evenodd" clip-rule="evenodd" d="M19.9919 31.2227H76.7796L48.3857 86.7977L19.9919 31.2227Z" fill="#FDAD00"/>
<path fill-rule="evenodd" clip-rule="evenodd" d="M48.3857 0.423828L21.4864 3.26725L19.9919 31.2235L48.3857 0.423828Z" fill="#FDD231"/>
<path fill-rule="evenodd" clip-rule="evenodd" d="M48.3857 0.423828L75.2851 3.26725L76.7795 31.2235L48.3857 0.423828Z" fill="#FDD231"/>
<path fill-rule="evenodd" clip-rule="evenodd" d="M96.1198 31.2239L75.2943 3.26758L76.7887 31.2239H96.1198Z" fill="#FDAD00"/>
<path fill-rule="evenodd" clip-rule="evenodd" d="M0.661987 31.2239L21.4875 3.26758L19.993 31.2239H0.661987Z" fill="#FDAD00"/>
<path fill-rule="evenodd" clip-rule="evenodd" d="M48.3857 0.423828L19.9919 31.2235H76.7796L48.3857 0.423828Z" fill="#FEEEB7"/>
</g>
<defs>
<clipPath id="clip0_254_512">
<rect width="96" height="86.8992" fill="white" transform="translate(0.486816)"/>
</clipPath>
</defs>
</svg>

<svg xmlns="http://www.w3.org/2000/svg" width="97" height="87" fill="none"><g fill-rule="evenodd" clip-path="url(#a)" clip-rule="evenodd"><path fill="#EA6C00" d="m19.993 31.223 28.394 55.575L.662 31.223h19.331ZM76.789 31.223 48.395 86.798 96.12 31.223H76.789Z"/><path fill="#FDAD00" d="M19.992 31.223H76.78L48.386 86.798 19.992 31.223Z"/><path fill="#FDD231" d="m48.386.424-26.9 2.843-1.494 27.957L48.386.424ZM48.386.424l26.9 2.843 1.493 27.957L48.386.424Z"/><path fill="#FDAD00" d="M96.12 31.224 75.294 3.268l1.495 27.956h19.33ZM.662 31.224 21.488 3.268l-1.495 27.956H.662Z"/><path fill="#FEEEB7" d="m48.386.424-28.394 30.8H76.78L48.386.424Z"/></g><defs><clipPath id="a"><path fill="#fff" d="M.487 0h96v86.899h-96z"/></clipPath></defs></svg>
